fonts/piswpi/tmp.svg

<?xml version="1.0" encoding="UTF-8" standalone="no"?>
<svg width="500" height="900" version="1.1" id="svg1" sodipodi:docname="tmp.svg" inkscape:version="1.4.2 (ebf0e940, 2025-05-08)" xmlns:inkscape="http://www.inkscape.org/namespaces/inkscape" xmlns:sodipodi="http://sodipodi.sourceforge.net/DTD/sodipodi-0.dtd" xmlns="http://www.w3.org/2000/svg" xmlns:svg="http://www.w3.org/2000/svg">
    <defs id="defs1" />
    <sodipodi:namedview id="namedview1" pagecolor="#ffffff" bordercolor="#000000" borderopacity="0.25" inkscape:showpageshadow="2" inkscape:pageopacity="0.0" inkscape:pagecheckerboard="0" inkscape:deskcolor="#d1d1d1" inkscape:zoom="0.2989372" inkscape:cx="244.19845" inkscape:cy="451.59987" inkscape:window-width="1080" inkscape:window-height="675" inkscape:window-x="0" inkscape:window-y="25" inkscape:window-maximized="0" inkscape:current-layer="svg1" />
    <path id="path1" d="M 109.37891 541.42969 A 50 50 0 0 0 102.98047 541.73633 A 50 50 0 0 0 73.224609 556.06641 A 50 50 0 0 0 73.224609 626.77539 L 73.222656 626.77734 A 50 50 0 0 0 143.93359 626.77734 A 50 50 0 0 0 143.93359 556.06641 A 50 50 0 0 0 109.37891 541.42969 z M 392.2207 541.42969 A 50 50 0 0 0 385.82227 541.73633 A 50 50 0 0 0 356.06641 556.06641 A 50 50 0 0 0 356.06641 626.77539 L 356.06641 626.77734 A 50 50 0 0 0 426.77539 626.77734 A 50 50 0 0 0 426.77539 556.06641 A 50 50 0 0 0 392.2207 541.42969 z M 249.99805 600.00195 A 50 50 0 0 0 199.99805 650.00195 A 50 50 0 0 0 217.25586 687.78711 A 50 50 0 0 0 250.00195 700.00195 A 50 50 0 0 0 300.00195 650.00195 A 50 50 0 0 0 249.99805 600.00195 z " />
</svg>

<svg width="500" height="900" xmlns="http://www.w3.org/2000/svg">
    <path d="M102.98 541.736a50 50 0 0 0-29.755 14.33 50 50 0 0 0 0 70.71l-.002.001a50 50 0 0 0 70.71 0 50 50 0 0 0 0-70.71 50 50 0 0 0-40.953-14.33zm282.842 0a50 50 0 0 0-29.756 14.33 50 50 0 0 0 0 70.71v.001a50 50 0 0 0 70.71 0 50 50 0 0 0 0-70.71 50 50 0 0 0-40.954-14.33zm-135.824 58.266a50 50 0 0 0-50 50 50 50 0 0 0 17.258 37.785 50 50 0 0 0 32.746 12.215 50 50 0 0 0 50-50 50 50 0 0 0-50.004-50z"/>
</svg><svg width="500" height="900" xmlns="http://www.w3.org/2000/svg">
    <path d="M249.998 199.998a50 50 0 0 0-50 50 50 50 0 0 0 50.004 50 50 50 0 0 0 50-50 50 50 0 0 0-17.258-37.785 50 50 0 0 0-32.746-12.215zM102.98 258.893a50 50 0 0 0-29.755 14.33 50 50 0 0 0 0 70.71 50 50 0 0 0 70.709 0 50 50 0 0 0 0-70.708v-.002a50 50 0 0 0-40.954-14.33zm282.844 0a50 50 0 0 0-29.758 14.33 50 50 0 0 0 0 70.71 50 50 0 0 0 70.71 0 50 50 0 0 0 0-70.708l.001-.002a50 50 0 0 0-40.953-14.33z"/>
</svg>
